images/skills/3-skills-backend-lg.svg

<svg width="420" height="325" viewBox="0 0 420 325" xmlns="http://www.w3.org/2000/svg"><title>backend</title><desc>Created with Sketch.</desc><g fill="#fff"><path d="M246.18 212.2l14.335 14.684 16.082-16.082-14.683-14.334c-1.05-1.4-1.4-3.147-.35-4.545 3.147-5.594 5.943-16.856 6.992-21.05.35-1.4 1.748-2.873 3.496-2.873H293v-15h-20.948c-1.748 0-3.146-1.166-3.496-2.914-1.05-3.845-3.845-14.916-6.992-20.51-1.05-1.4-.7-3.088.35-4.487l14.683-14.306-16.082-16.067-14.334 14.69c-1.397 1.05-3.145 1.403-4.544.354-4.894-2.796-14.265-5.24-20.908-6.99-1.398-.35-2.728-1.745-2.728-3.494V79h-15v20.276c0 1.75-1.31 3.147-3.057 3.496-3.846 1.05-14.988 3.846-20.582 6.993-1.397 1.05-3.123.7-4.522-.35l-14.322-14.683-16.077 16.082 14.686 14.333c1.048 1.4 1.4 3.147.35 4.545-3.146 5.594-5.942 16.55-6.99 20.744-.35 1.398-1.748 2.564-3.496 2.564H128v15h20.99c1.748 0 3.146 1.473 3.496 2.872 1.05 4.195 3.846 15.42 6.992 21.013 1.05 1.4.7 3.166-.35 4.564l-14.683 14.342 16.082 16.087 14.334-14.682c1.4-1.05 3.147-1.397 4.546-.35 5.594 3.148 16.69 5.945 20.887 6.994 1.398.35 2.707 1.75 2.707 3.497V243h15v-20.66c0-1.75 1.33-3.148 2.728-3.497 4.196-1.05 15.35-3.846 20.943-6.992 1.4-1.048 3.113-.7 4.51.35zm-35.66-13.984c-20.626 0-37.407-16.78-37.407-37.408 0-20.627 16.78-37.41 37.408-37.41s37.41 16.783 37.41 37.41c0 20.627-16.782 37.408-37.41 37.408z"/><path d="M205 312.166L80.506 240.524C78.956 239.63 78 237.98 78 236.19V89.426c0-1.79.956-3.44 2.506-4.334L205 13.45V0H0v325h205v-12.834"/><path d="M210.52 131.09c-16.43 0-29.716 13.286-29.716 29.718 0 16.43 13.285 29.716 29.717 29.716 16.433 0 29.718-13.285 29.718-29.716 0-16.432-13.285-29.717-29.717-29.717"/><path d="M215 0v16.342c0 1.79-.956 3.44-2.506 4.334L88 92.318v140.98l124.494 71.642c1.55.893 2.506 2.545 2.506 4.334V325h205V0H215zm-15.666 250c-2.098 0-4.334-1.44-4.334-3.538v-21.326c-5-1.4-11.992-3.147-16.887-5.594l-15.26 15.033c-1.4 1.4-3.786 1.4-5.184 0L136.722 213.6c-.7-.7-1.034-1.75-1.034-2.798 0-1.05.357-1.748 1.056-2.447l15.037-15.304c-2.447-4.893-4.192-11.05-5.59-17.05h-21.326c-1.964 0-3.867-1.69-3.867-3.608v-23.17c0-1.915 1.903-3.222 3.867-3.222h21.326c1.398-6 3.146-12.35 5.594-17.244l-15.034-15.44c-1.398-1.397-1.398-3.873 0-5.27l20.977-20.992c1.398-1.398 3.846-1.405 5.244-.007l15.14 15.03C183.007 99.63 190 97.877 195 96.48V75.153c0-2.097 2.236-4.153 4.334-4.153h22.375c2.096 0 4.29 2.056 4.29 4.153V96.48c5 1.398 12.013 3.146 16.908 5.593l15.27-15.033c1.4-1.398 3.79-1.398 5.19 0l20.95 20.977c.698.7 1.033 1.748 1.033 2.797 0 1.048-.355 1.748-1.054 2.447l-15.037 15.496c2.446 4.895 4.19 11.244 5.59 17.244h21.325c2.098 0 3.825 1.522 3.825 3.62v22.375c0 2.098-1.727 4.005-3.825 4.005H274.85c-1.4 6-3.147 12.157-5.595 17.05l15.034 15.344c1.397 1.4 1.397 3.826 0 5.224l-20.978 20.967c-1.398 1.4-3.846 1.394-5.244-.005l-15.16-15.036c-4.895 2.448-11.908 4.193-16.908 5.592v21.326c0 2.098-2.194 3.538-4.29 3.538h-22.376zM342 235.774c0 1.787-.943 3.44-2.49 4.33l-98.536 56.844-11.89 6.845c-.735.382-1.52.574-2.298.574-1.73 0-3.41-.897-4.336-2.503-1.38-2.392-.558-5.45 1.833-6.83l11.997-6.926 95.72-55.09V92.14L225.293 30.578c-2.388-1.38-3.203-4.436-1.824-6.827 1.38-2.39 4.437-3.213 6.83-1.83l109.208 63c1.547.894 2.492 2.545 2.492 4.332v146.522z"/></g></svg>

<?xml version="1.0" encoding="UTF-8" standalone="no"?>
<svg width="420px" height="325px" viewBox="0 0 420 325" version="1.1" xmlns="http://www.w3.org/2000/svg" xmlns:xlink="http://www.w3.org/1999/xlink" xmlns:sketch="http://www.bohemiancoding.com/sketch/ns">
    <!-- Generator: Sketch 3.2.2 (9983) - http://www.bohemiancoding.com/sketch -->
    <title>backend</title>
    <desc>Created with Sketch.</desc>
    <defs></defs>
    <g id="Large" stroke="none" stroke-width="1" fill="none" fill-rule="evenodd" sketch:type="MSPage">
        <g id="Group" sketch:type="MSLayerGroup" fill="#FFFFFF">
            <g id="backend" sketch:type="MSShapeGroup">
                <path d="M246.181,212.2 L260.515,226.884 L276.597,210.802 L261.914,196.468 C260.865,195.069 260.515,193.321 261.564,191.923 C264.711,186.329 267.507,175.067 268.556,170.872 C268.906,169.473 270.304,168 272.052,168 L293,168 L293,153 L272.052,153 C270.304,153 268.906,151.834 268.556,150.086 C267.507,146.241 264.711,135.17 261.564,129.576 C260.515,128.177 260.865,126.488 261.914,125.089 L276.597,110.784 L260.515,94.717 L246.181,109.408 C244.783,110.457 243.035,110.81 241.636,109.761 C236.742,106.964 227.371,104.519 220.728,102.771 C219.33,102.421 218,101.025 218,99.276 L218,79 L203,79 L203,99.276 C203,101.025 201.691,102.423 199.943,102.772 C196.097,103.821 184.955,106.618 179.361,109.765 C177.963,110.814 176.237,110.464 174.838,109.415 L160.516,94.732 L144.439,110.814 L159.126,125.147 C160.174,126.546 160.526,128.294 159.477,129.692 C156.33,135.286 153.534,146.241 152.485,150.436 C152.136,151.834 150.738,153 148.99,153 L128,153 L128,168 L148.99,168 C150.738,168 152.136,169.473 152.486,170.872 C153.535,175.067 156.332,186.292 159.478,191.885 C160.527,193.284 160.177,195.051 159.128,196.449 L144.445,210.792 L160.527,226.879 L174.861,212.198 C176.259,211.149 178.007,210.801 179.406,211.849 C185,214.996 196.097,217.793 200.293,218.842 C201.691,219.192 203,220.591 203,222.339 L203,243 L218,243 L218,222.339 C218,220.591 219.33,219.192 220.728,218.843 C224.924,217.794 236.077,214.997 241.671,211.851 C243.069,210.802 244.783,211.151 246.181,212.2 L246.181,212.2 Z M210.521,198.216 C189.894,198.216 173.113,181.435 173.113,160.808 C173.113,140.181 189.894,123.399 210.521,123.399 C231.148,123.399 247.929,140.181 247.929,160.808 C247.929,181.435 231.148,198.216 210.521,198.216 L210.521,198.216 Z" id="Fill-1"></path>
                <path d="M205,312.166 L80.506,240.524 C78.956,239.631 78,237.979 78,236.19 L78,89.426 C78,87.637 78.956,85.985 80.506,85.092 L205,13.45 L205,0 L0,0 L0,325 L205,325 L205,312.166" id="Fill-2"></path>
                <path d="M210.521,131.091 C194.089,131.091 180.804,144.376 180.804,160.808 C180.804,177.239 194.089,190.524 210.521,190.524 C226.953,190.524 240.238,177.239 240.238,160.808 C240.238,144.376 226.953,131.091 210.521,131.091" id="Fill-3"></path>
                <path d="M215,0 L215,16.342 C215,18.131 214.044,19.783 212.494,20.676 L88,92.318 L88,233.297 L212.494,304.94 C214.044,305.833 215,307.485 215,309.274 L215,325 L420,325 L420,0 L215,0 L215,0 Z M199.334,250 C197.236,250 195,248.56 195,246.462 L195,225.136 C190,223.737 183.008,221.989 178.113,219.542 L162.852,234.575 C161.454,235.974 159.067,235.974 157.669,234.575 L136.723,213.599 C136.024,212.899 135.689,211.851 135.689,210.802 C135.689,209.753 136.047,209.054 136.746,208.355 L151.783,193.051 C149.336,188.157 147.591,182 146.193,176 L124.867,176 C122.903,176 121,174.309 121,172.392 L121,149.223 C121,147.307 122.903,146 124.867,146 L146.193,146 C147.591,140 149.339,133.651 151.787,128.756 L136.753,113.317 C135.355,111.919 135.355,109.443 136.753,108.045 L157.73,87.054 C159.128,85.656 161.576,85.649 162.974,87.047 L178.113,102.077 C183.008,99.63 190,97.878 195,96.48 L195,75.153 C195,73.056 197.236,71 199.334,71 L221.709,71 C223.806,71 226,73.056 226,75.153 L226,96.48 C231,97.878 238.013,99.626 242.908,102.073 L258.179,87.04 C259.578,85.642 261.969,85.642 263.368,87.04 L284.317,108.017 C285.016,108.716 285.351,109.765 285.351,110.814 C285.351,111.862 284.995,112.562 284.296,113.261 L269.259,128.756 C271.706,133.651 273.451,140 274.849,146 L296.175,146 C298.273,146 300,147.522 300,149.62 L300,171.995 C300,174.093 298.273,176 296.175,176 L274.849,176 C273.451,182 271.703,188.157 269.255,193.051 L284.289,208.394 C285.687,209.793 285.687,212.22 284.289,213.618 L263.312,234.585 C261.914,235.984 259.466,235.979 258.068,234.58 L242.908,219.544 C238.013,221.992 231,223.737 226,225.136 L226,246.462 C226,248.56 223.806,250 221.709,250 L199.334,250 L199.334,250 Z M342,235.774 C342,237.561 341.057,239.213 339.51,240.105 L240.974,296.948 L229.083,303.793 C228.349,304.175 227.565,304.367 226.786,304.367 C225.057,304.367 223.375,303.47 222.45,301.864 C221.07,299.472 221.892,296.415 224.283,295.035 L236.28,288.108 L332,233.019 L332,92.14 L225.293,30.578 C222.905,29.197 222.09,26.142 223.469,23.751 C224.849,21.36 227.907,20.537 230.301,21.919 L339.508,84.921 C341.055,85.814 342,87.465 342,89.252 L342,235.774 L342,235.774 Z" id="Fill-4"></path>
            </g>
        </g>
    </g>
</svg>
